!!!COM: Augusta Holme\s
!!!CNT: Francais
!!!TXO: Francais
!!!OTL: ""
!!!LYR: 
!!!OPR: Les Heures (L'heure d'azur)
!!!OPS: Op. 
!!!ONM: No. 
!!!ENC: Alyona Dzerbina
!!!YOR: Augusta Holme\s, Les Heures
!!!YOR: Recital Publications, 1982
!!!ODT: 1899/
!!NB: Vocal melody and text encoded.
**kern	**text
*staff1	*staff1
=1-	=1-
*clefG2	*
*k[b-e-a-]	*
*M3/4	*
*MM44	*
2.r	.
=2	=2
2.r	.
=3	=3
2.r	.
=4	=4
2.r	.
=5	=5
2.r	.
=6	=6
2.r	.
=7	=7
2.r	.
=8	=8
2.r	.
=9	=9
2.r	.
=10	=10
2.r	.
=11	=11
2.r	.
=12	=12
2.r	.
=13	=13
2.r	.
=14	=14
2.r	.
=15	=15
2.r	.
=16	=16
2.r	.
=17	=17
2.r	.
=18	=18
2.r	.
=19	=19
2.r	.
=20	=20
4r	.
4r	.
8r	.
{16g	{Lais-
16g	-se-
=21	=21
8g	-moi
16g	te
16g	par-
8.g	-ler
16g	sous
16g	les
16g	pro-
16g	-fon-
16g	-des
=22	=22
4b-	bran-
4b-}	-ches}
8r	.
{16g	{Ou\
16g	des
=23	=23
8g	thyr-
16g	-ses
16g	de
8.g	fleurs
16g	s'e/-
16g	-tag-
16g	-ent
16g	par
16g	mil-
=24	=24
2b-}	-liers,}
8r	.
{16g	{En
16g	cette
=25	=25
8g	heure
16g	ou\
16g	la
8.g	lune,
16g	en
16g	lon-
16g	-gues
16g	cler-
16g	-te/s
=26	=26
(4b-	blan-
4a-)}	-ches,}
{(12g	{Fait
12f	de
12g	ce
=27	=27
6e-	bois
12g	un
4b-)	temple
(12e-	aux
12f	lu-
12g)	-mi-
=28	=28
*M2/4	*
4.f	-neux
8e-	pi-
=29	=29
*M3/4	*
[4e-	-liers.
8e-]}	|}
8r	.
4r	.
=30	=30
4r	.
4r	.
8r	.
{16g	{Lais-
16g	-se-
=31	=31
8g	-moi
16g	te
16g	par-
8.g	-ler
16g	comme
16g	en
16g	la
16g	nuit
16g	be/-
=32	=32
4b-	-ni-
4b-}	-e}
8r	.
{16g	{Ou\
16g	sou-
=33	=33
8g	-dain
16g	tu
16g	m'as
8g	dit:
16r	.
16g	"je
16g	t'aime!
16g	em-
16g	-por-
16g	-te
=34	=34
2b-}	moi!.."}
8r	.
{16g	{Ou'
16g	j'ai
=35	=35
8g	pris
16g	ta
16g	bea-
8g	-ute/,
16g	ton
16g	ar-
8b-	-deur,
16b-	et
16b-	ta
=36	=36
(4ee-	vi-
4a-)}	-e,}
{(12g	{Ou\
12f	pour
12g	tou-
=37	=37
6e-	-jours
12g	mon
4b-	a^-
12e-	-me
12f	s'est
12g)	don-
=38	=38
*M2/4	*
4.f	-ne/e
8e-	a^
=39	=39
*M3/4	*
[4e-	toi!
8e-]}	|}
8r	.
4r	.
=40	=40
2.r	.
=41	=41
2.r	.
=42	=42
2.r	.
=43	=43
2.r	.
=44	=44
2.r	.
=45	=45
2.r	.
=46	=46
2.r	.
=47	=47
2.r	.
=48	=48
2.r	.
=49	=49
4r	.
4r	.
8r	.
{16g	{Lais-
16g	-se/-
=50	=50
8g	-moi
16g	te
16g	par-
8g	-ler
16g	des
16g	am-
8g	-ours
16g	e/-
16g	-ter-
=51	=51
4b-	-nel-
4b-}	-les,}
8r	.
{16g	{Du
16g	pa-
=52	=52
8g	-ys
16g	mer-
16g	-veil-
8.g	-leux
16g	ou\-
16g	-nous
16g	i-
16g	-rons
16g	un
=53	=53
2b-}	jour,}
8r	.
{16g	{Toi,
16g	ber-
=54	=54
8g	-ce/e
16g	eu
16g	mes
8g	bras,
16g	moi,
16g	nei-
8b-	-geux
16b-	de
16b-	tes
=55	=55
4ee-	ai-
[4a-	-les,
16a-]}	|}
16r	.
{16a-	{Sans
16a-	re-
=56	=56
8g	-grets,
16g	sans
16g	re-
8bn	-mords,
16b	sans
16b	adi-
8dd	-eux,
16dd	sans
16dd	re-
=57	=57
[4ff	-tour!
8ff]}	|}
8r	.
4r	.
=58	=58
{4gg	{Ah!
8ff	lais-
8ee-	-se-
8b-	-moi
8cc	par-
=59	=59
*M2/4	*
(12g	-ler
12f	des
12g)	a-
(12e-	-mours
12f	e/-
12g)	-ter-
=60	=60
*M3/4	*
(2.ee-	-nel-
=61	=61
[4e-)	-les,
8e-]}	|}
8r	.
{(12g	{Toi-
12f	qui
12g)	-m'as
=62	=62
(6e-	mis
12g)	au
4b-	coeur
(12e-	l'in-
12f	-des-
12g)	-truc-
=63	=63
[2f	-tible
(6f]	|
12e-)	A-
=64	=64
[4e-	-mour!
8e-]}	|}
8r	.
4r	.
=65	=65
2.r	.
=66	=66
2.r	.
=67	=67
2.r	.
=68	=68
2.r	.
==	==
*-	*-
